X:92
T:Rocket, The
M:C
L:1/8
N:The 'G' note in measure measure four may be played sharp.
B:Thompson's Compleat Collection of 200 Favourite Country Dances, vol. 3 (London, 1773)
Z:Transcribed and edited by Flynn Titford-Mock, 2007
Z:abc's:AK/Fiddler's Companion
K:D
f | e>de>c d A2B | AG/F/ EA/G/ F D2 f | e>de>d c a2 d | cB/A/ BA/G/ A3 :|
|: g | f>ga>f g b2 g | e>fg>e f a2f | dABF G E2g | faAc d3 :|

